src/images/man_trash.svg

<svg width="274" height="178" viewBox="0 0 274 178" fill="none" xmlns="http://www.w3.org/2000/svg">
<g clip-path="url(#clip0)">
<path d="M92.2993 177.608H11.9599C11.9599 177.608 10.3314 153.723 19.9667 153.452C29.602 153.18 28.5163 164.037 40.5944 149.109C52.6724 134.181 67.329 134.996 69.2289 143.817C71.1288 152.638 65.5648 159.694 75.7429 157.523C85.921 155.352 100.578 161.052 92.2993 177.608Z" fill="#336B68"/>
<path d="M50.7735 177.613L50.5023 177.603C51.1347 161.877 54.4281 151.773 57.0796 146.067C59.9585 139.87 62.7327 137.362 62.7604 137.337L62.9408 137.54C62.9135 137.564 60.1716 140.048 57.3158 146.202C54.6789 151.885 51.4035 161.947 50.7735 177.613Z" fill="#F2F2F2"/>
<path d="M79.8504 177.646L79.5898 177.57C82.7273 166.801 90.1156 160.002 90.1899 159.935L90.3723 160.135C90.2986 160.202 82.9656 166.954 79.8504 177.646Z" fill="#F2F2F2"/>
<path d="M24.6137 177.627L24.3448 177.589C25.4093 169.912 23.4865 163.956 21.686 160.311C19.7364 156.365 17.512 154.209 17.4897 154.188L17.6775 153.992C17.7001 154.014 19.9589 156.202 21.9293 160.191C23.7467 163.87 25.6877 169.881 24.6137 177.627Z" fill="#F2F2F2"/>
<path d="M103.203 177.971H3.29455L3.2715 177.633C3.21406 176.791 1.93957 156.932 8.37424 149.846C9.81272 148.262 11.5455 147.431 13.5243 147.375C17.7187 147.256 20.3545 148.827 22.4805 150.088C26.4877 152.465 29.1349 154.035 38.7598 142.139C49.1865 129.252 60.4366 126.479 66.9039 128.021C71.0825 129.017 73.9625 131.833 74.8054 135.747C75.6036 139.452 75.3494 142.934 75.1451 145.732C74.9265 148.725 74.7539 151.09 75.9833 152.161C77.0096 153.055 79.0581 153.137 82.4297 152.417C89.2876 150.954 98.8565 152.206 103.659 158.411C106.244 161.75 108.279 167.819 103.303 177.771L103.203 177.971ZM3.97638 177.245H102.753C106.461 169.723 106.577 163.367 103.085 158.856C98.6792 153.163 89.4354 151.665 82.5811 153.127C78.9181 153.909 76.7354 153.78 75.5063 152.709C74.0031 151.399 74.1875 148.875 74.4208 145.679C74.6218 142.928 74.8718 139.503 74.0956 135.899C73.314 132.27 70.6313 129.656 66.7355 128.728C60.4746 127.234 49.5388 129.971 39.3243 142.596C29.3049 154.98 26.2866 153.19 22.1102 150.712C19.958 149.436 17.5143 147.988 13.5449 148.101C11.771 148.151 10.2123 148.902 8.91179 150.334C3.12861 156.702 3.83472 174.56 3.97638 177.245Z" fill="#336B68" fill-opacity="0.17"/>
<path d="M201.924 126.795L172.858 121.741C178.054 110.965 180.428 100.319 178.399 89.8735L207.465 94.9274C202.945 104.908 201.038 115.874 201.924 126.795Z" fill="#F2F2F2"/>
<path d="M199.457 99.4877L184.398 96.8694L184.277 97.5698L199.335 100.188L199.457 99.4877Z" fill="#3F3D56"/>
<path d="M198.97 102.289L183.911 99.6711L183.79 100.372L198.848 102.99L198.97 102.289Z" fill="#3F3D56"/>
<path d="M198.482 105.092L183.424 102.474L183.302 103.174L198.361 105.792L198.482 105.092Z" fill="#3F3D56"/>
<path d="M197.995 107.892L182.937 105.274L182.815 105.974L197.874 108.593L197.995 107.892Z" fill="#3F3D56"/>
<path d="M197.508 110.694L182.45 108.076L182.328 108.776L197.386 111.394L197.508 110.694Z" fill="#3F3D56"/>
<path d="M197.021 113.495L181.963 110.877L181.841 111.577L196.899 114.196L197.021 113.495Z" fill="#3F3D56"/>
<path d="M196.534 116.297L181.476 113.679L181.354 114.379L196.412 116.997L196.534 116.297Z" fill="#3F3D56"/>
<path d="M196.047 119.098L180.989 116.48L180.867 117.18L195.925 119.799L196.047 119.098Z" fill="#3F3D56"/>
<path d="M214.869 137.03L185.803 131.976C190.999 121.201 193.373 110.554 191.344 100.109L220.41 105.163C215.89 115.143 213.983 126.11 214.869 137.03Z" fill="#F2F2F2"/>
<path d="M212.402 109.723L197.344 107.105L197.222 107.805L212.28 110.424L212.402 109.723Z" fill="#3F3D56"/>
<path d="M211.915 112.525L196.856 109.906L196.735 110.607L211.793 113.225L211.915 112.525Z" fill="#3F3D56"/>
<path d="M211.427 115.328L196.369 112.709L196.247 113.41L211.306 116.028L211.427 115.328Z" fill="#3F3D56"/>
<path d="M210.94 118.128L195.882 115.51L195.76 116.21L210.818 118.828L210.94 118.128Z" fill="#3F3D56"/>
<path d="M210.453 120.93L195.395 118.311L195.273 119.012L210.332 121.63L210.453 120.93Z" fill="#3F3D56"/>
<path d="M209.966 123.731L194.908 121.113L194.786 121.813L209.844 124.431L209.966 123.731Z" fill="#3F3D56"/>
<path d="M209.479 126.533L194.421 123.914L194.299 124.615L209.357 127.233L209.479 126.533Z" fill="#3F3D56"/>
<path d="M208.992 129.334L193.934 126.716L193.812 127.416L208.87 130.034L208.992 129.334Z" fill="#3F3D56"/>
<path d="M222.792 177.582H170.947L170.937 177.291L168.462 106.492H225.277L222.792 177.582ZM171.528 176.979H222.21L224.654 107.094H169.085L171.528 176.979Z" fill="#3F3D56"/>
<path d="M219.953 173.777H173.786L171.566 110.297H222.173L219.953 173.777Z" fill="#404040"/>
<g opacity="0.2">
<path opacity="0.2" d="M183.314 119.609H179.371V168.408H183.314V119.609Z" fill="white"/>
<path opacity="0.2" d="M198.841 119.609H194.898V168.408H198.841V119.609Z" fill="white"/>
<path opacity="0.2" d="M214.368 119.609H210.425V168.408H214.368V119.609Z" fill="white"/>
</g>
<path d="M197.748 78.9011L192.48 87.2339L256.643 127.798L261.911 119.465L197.748 78.9011Z" fill="#404040"/>
<path d="M236.353 88.864C234.482 87.6793 232.309 87.0565 230.094 87.0695C227.879 87.0825 225.714 87.7308 223.856 88.9373C221.998 90.1439 220.525 91.8581 219.612 93.8765C218.7 95.895 218.385 98.1329 218.706 100.325L221.775 102.265C221.004 100.473 220.826 98.4817 221.268 96.5815C221.71 94.6813 222.749 92.9727 224.233 91.7056C225.716 90.4386 227.566 89.6799 229.512 89.5404C231.458 89.401 233.398 89.8882 235.047 90.9307C236.696 91.9732 237.968 93.5163 238.676 95.334C239.385 97.1517 239.493 99.1485 238.985 101.032C238.477 102.916 237.379 104.587 235.852 105.801C234.325 107.016 232.449 107.71 230.5 107.781L233.569 109.721C235.687 109.071 237.574 107.827 239.005 106.137C240.437 104.447 241.354 102.381 241.647 100.185C241.941 97.9895 241.598 95.7557 240.659 93.749C239.721 91.7423 238.226 90.0469 236.353 88.864V88.864Z" fill="#404040"/>
<path d="M273.652 177.166H0V177.768H273.652V177.166Z" fill="#3F3D56"/>
<path d="M144.502 74.8101C144.502 74.8101 156.243 83.5404 151.427 85.0456C146.61 86.5509 140.589 79.9279 140.89 78.1216C141.191 76.3153 144.502 74.8101 144.502 74.8101Z" fill="#FFB8B8"/>
<path d="M134.267 63.6714L146.309 74.8101L141.492 79.9279L133.364 73.907L134.267 63.6714Z" fill="#336B68"/>
<path d="M161.213 109.412L136.386 93.4751C145.356 85.5601 151.676 76.6692 153.86 66.2554L178.686 82.1925C170.647 89.6366 164.634 99.0036 161.213 109.412Z" fill="#336B68"/>
<path d="M169.536 83.2876L156.674 75.031L156.29 75.6292L169.152 83.8858L169.536 83.2876Z" fill="#D9D9D9"/>
<path d="M168 85.6804L155.138 77.4238L154.753 78.0221L167.615 86.2787L168 85.6804Z" fill="#D9D9D9"/>
<path d="M166.463 88.0735L153.601 79.8169L153.217 80.4151L166.079 88.6717L166.463 88.0735Z" fill="#D9D9D9"/>
<path d="M164.927 90.4666L152.065 82.21L151.681 82.8082L164.543 91.0648L164.927 90.4666Z" fill="#D9D9D9"/>
<path d="M163.391 92.8594L150.529 84.6028L150.145 85.201L163.007 93.4576L163.391 92.8594Z" fill="#D9D9D9"/>
<path d="M161.855 95.2522L148.993 86.9956L148.609 87.5938L161.471 95.8504L161.855 95.2522Z" fill="#D9D9D9"/>
<path d="M160.319 97.6453L147.457 89.3887L147.073 89.9869L159.935 98.2435L160.319 97.6453Z" fill="#D9D9D9"/>
<path d="M158.783 100.038L145.921 91.7815L145.537 92.3797L158.399 100.636L158.783 100.038Z" fill="#D9D9D9"/>
<path d="M91.2669 147.638L86.6976 157.251L99.4797 160.31L99.1236 151.043L91.2669 147.638Z" fill="#FFB8B8"/>
<path d="M136.976 160.609L138.482 171.145L150.824 166.629L145.406 159.103L136.976 160.609Z" fill="#FFB8B8"/>
<path d="M109.639 61.3853C109.639 61.3853 107.747 73.4966 108.262 79.2566C108.777 85.0166 106.747 109.319 106.747 109.319C106.747 109.319 97.6698 119.193 95.6094 130.47C94.255 137.575 92.0862 144.5 89.1459 151.108L99.8417 154.59L121.037 114.461C121.037 114.461 136.238 81.1937 134.727 78.0245C133.217 74.8553 130.848 62.0861 130.848 62.0861L109.639 61.3853Z" fill="#404040"/>
<path d="M89.4468 154.74C89.4468 154.74 89.4338 149.312 87.519 151.655C85.6042 153.997 79.3528 158.521 83.0342 161.685C86.7155 164.849 108.215 181.998 109.372 176.985C110.014 174.203 99.2916 155.419 99.2916 155.419C99.2916 155.419 95.7111 155.643 95.4628 156.562C95.2145 157.481 89.4468 154.74 89.4468 154.74Z" fill="#404040"/>
<path d="M127.644 12.1924L119.516 21.5248L127.644 29.9541L135.17 18.5144L127.644 12.1924Z" fill="#FFB8B8"/>
<path d="M141.492 12.7945C141.493 14.8843 140.689 16.8941 139.248 18.4071C137.806 19.9201 135.838 20.8201 133.751 20.9204C131.663 21.0207 129.617 20.3136 128.038 18.9458C126.458 17.578 125.465 15.6544 125.266 13.5743C125.066 11.4941 125.675 9.41695 126.966 7.77382C128.257 6.13069 130.132 5.04769 132.2 4.7495C134.268 4.45131 136.372 4.96083 138.075 6.17235C139.777 7.38387 140.948 9.20439 141.344 11.2562C141.442 11.7631 141.492 12.2782 141.492 12.7945Z" fill="#FFB8B8"/>
<path d="M128.01 6.64064C130.831 5.32966 134.155 5.49706 137.13 6.40428C138.818 6.91894 140.484 7.69478 141.666 9.00563C142.847 10.3165 143.455 12.2475 142.841 13.9017L140.38 12.0412L140.155 13.681C138.531 11.1479 135.447 10.0473 132.586 9.11384C131.692 8.8219 130.504 8.62257 129.988 9.40965C129.771 9.74136 129.746 10.1743 129.515 10.4965C129.081 11.1003 128.175 11.0471 127.512 11.3821C126.891 11.6957 126.514 12.336 126.179 12.9461C125.844 13.5561 125.993 14.4104 125.386 14.7513C122.952 16.1182 124.387 10.8543 124.784 9.93451C125.568 8.11796 126.221 7.47202 128.01 6.64064Z" fill="#2F2E41"/>
<path d="M104.614 78.5733C104.614 78.5733 109.732 89.712 113.344 94.2277C116.957 98.7434 128.698 120.118 128.698 120.118C128.698 120.118 126.59 133.364 131.106 143.9C133.904 150.57 135.925 157.54 137.127 164.673L147.965 161.662L143.449 116.505C143.449 116.505 137.729 80.3796 134.718 78.5733C131.708 76.767 122.677 67.4346 122.677 67.4346L104.614 78.5733Z" fill="#404040"/>
<path d="M129.751 29.3521C129.751 29.3521 124.633 15.805 117.709 20.0196C110.785 24.2343 105.366 61.8651 105.366 61.8651C105.366 61.8651 99.0444 79.0248 105.366 80.8311C111.688 82.6374 116.806 85.0457 117.709 81.7342C118.612 78.4227 118.01 72.7028 119.516 75.7133C121.021 78.7237 120.419 82.3363 123.429 82.3363C126.44 82.3363 138.181 80.8311 137.879 78.7237C137.578 76.6164 129.751 29.3521 129.751 29.3521Z" fill="#336B68"/>
<path d="M104.764 82.6373C104.764 82.6373 100.851 94.3781 106.27 94.3781C111.688 94.3781 110.905 82.5247 110.905 82.5247L104.764 82.6373Z" fill="#FFB8B8"/>
<path d="M139.385 167.533C139.385 167.533 136.374 163.017 136.073 166.027C135.772 169.038 133.063 176.263 137.879 176.865C142.696 177.467 170.091 179.875 168.285 175.059C167.282 172.385 147.965 162.657 147.965 162.657C147.965 162.657 145.105 164.823 145.406 165.726C145.707 166.629 139.385 167.533 139.385 167.533Z" fill="#404040"/>
<path d="M146.76 14.7513C146.76 14.7513 145.333 15.9766 143.482 13.5531C142.997 12.8937 142.582 12.1854 142.245 11.4398C140.755 9.95919 138.757 9.10132 136.657 9.04043C136.516 9.03443 136.371 9.03142 136.224 9.0314C132.31 9.0314 131.407 6.32198 131.407 6.32198L125.085 8.42931C125.085 8.42931 125.988 0 134.718 0C143.449 0 143.75 7.22512 143.75 7.22512C143.75 7.22512 150.674 9.93454 146.76 14.7513Z" fill="#336B68"/>
<path opacity="0.2" d="M143.482 13.553C142.997 12.8936 142.582 12.1853 142.245 11.4396C140.755 9.95906 138.757 9.10119 136.657 9.0403C138.858 8.35091 142.684 7.55012 144.352 9.63337C145.887 11.551 144.611 12.8576 143.482 13.553Z" fill="black"/>
<path d="M118.01 22.4281C118.01 22.4281 109.882 20.9228 107.775 28.148C105.667 35.3731 101.152 56.7474 101.152 56.7474L103.861 78.7238L103.56 84.1427H112.29V78.4228C112.29 77.8207 113.495 54.339 113.495 54.339L123.429 31.7605C123.429 31.7605 125.537 24.5354 118.01 22.4281Z" fill="#336B68"/>
<path opacity="0.2" d="M123.58 34.9214L113.645 54.4894L112.426 82.5247L115.752 54.1884L123.58 34.9214Z" fill="black"/>
<path opacity="0.2" d="M135.629 64.9316L137.885 76.4942L136.757 65.9751L135.629 64.9316Z" fill="black"/>
<path opacity="0.2" d="M110.033 91.9697L122.978 110.334L121.623 113.043L110.033 91.9697Z" fill="black"/>
</g>
<defs>
<clipPath id="clip0">
<rect width="273.652" height="178" fill="white"/>
</clipPath>
</defs>
</svg>

<svg xmlns="http://www.w3.org/2000/svg" width="274" height="178" fill="none"><g clip-path="url(#clip0)"><path fill="#336B68" d="M92.3 177.6H12s-1.7-23.9 8-24.1c9.6-.3 8.5 10.5 20.6-4.4 12-15 26.7-14.1 28.6-5.3 2 8.8-3.6 15.9 6.5 13.7 10.2-2.1 24.9 3.6 16.6 20.1z"/><path fill="#F2F2F2" d="M50.8 177.6h-.3c.6-15.7 4-25.8 6.6-31.5 2.9-6.2 5.6-8.7 5.7-8.8l.1.2s-2.7 2.5-5.6 8.7c-2.6 5.7-5.9 15.7-6.5 31.4zM79.9 177.6h-.3a42 42 0 0110.6-17.7l.2.2c-.1.1-7.4 6.9-10.5 17.5zM24.6 177.6h-.3c1.1-7.7-.8-13.6-2.6-17.3-2-4-4.2-6-4.2-6.1l.2-.2s2.3 2.2 4.2 6.2c1.8 3.7 3.8 9.7 2.7 17.4z"/><path fill="#336B68" fill-opacity=".2" d="M103.2 178H3.2v-.4c0-.8-1.3-20.7 5.2-27.8a7 7 0 015.1-2.4c4.2-.1 6.9 1.4 9 2.7 4 2.4 6.6 4 16.3-8 10.4-12.8 21.6-15.6 28.1-14 4.2 1 7 3.7 8 7.6.7 3.8.4 7.2.2 10-.2 3-.3 5.4.9 6.5 1 .9 3 1 6.4.2 6.9-1.4 16.5-.2 21.3 6 2.5 3.3 4.6 9.4-.4 19.4l-.1.2zM4 177.2h98.8c3.7-7.5 3.8-13.8.3-18.3-4.4-5.7-13.7-7.2-20.5-5.8-3.7.8-5.9.7-7-.4-1.6-1.3-1.4-3.8-1.2-7 .2-2.8.5-6.2-.3-9.8a9.3 9.3 0 00-7.4-7.2c-6.2-1.5-17.2 1.3-27.4 13.9-10 12.4-13 10.6-17.2 8.1a14.6 14.6 0 00-8.6-2.6c-1.7 0-3.3.8-4.6 2.2-5.8 6.4-5 24.3-5 27z"/><path fill="#F2F2F2" d="M202 126.8l-29.1-5a50.6 50.6 0 005.5-32l29 5.1c-4.5 10-6.4 21-5.5 31.9z"/><path fill="#3F3D56" d="M199.5 99.5l-15.1-2.6-.1.7 15 2.6.2-.7zM199 102.3l-15-2.6-.2.7 15 2.6.2-.7zM198.5 105l-15-2.5-.2.7 15 2.6.2-.7zM198 107.9l-15-2.6-.2.7 15 2.6.2-.7zM197.5 110.7l-15-2.6-.2.7 15 2.6.2-.7zM197 113.5l-15-2.6-.2.7 15.1 2.6.1-.7zM196.5 116.3l-15-2.6-.1.7 15 2.6.1-.7zM196 119.1l-15-2.6-.1.7 15 2.6.1-.7z"/><path fill="#F2F2F2" d="M214.9 137l-29.1-5a50.6 50.6 0 005.5-31.9l29.1 5c-4.5 10-6.4 21-5.5 32z"/><path fill="#3F3D56" d="M212.4 109.7l-15-2.6-.2.7 15 2.6.2-.7zM212 112.5l-15.1-2.6-.2.7 15 2.6.2-.7zM211.4 115.3l-15-2.6-.2.7 15.1 2.6.1-.7zM211 118.1l-15.1-2.6-.1.7 15 2.6.1-.7zM210.5 121l-15.1-2.7-.1.7 15 2.6.2-.7zM210 123.7l-15-2.6-.2.7 15 2.6.2-.7zM209.5 126.5l-15-2.6-.2.7 15 2.6.2-.7zM209 129.3l-15-2.6-.2.7 15 2.6.2-.7z"/><path fill="#3F3D56" d="M222.8 177.6h-51.9v-.3l-2.4-70.8h56.8l-2.5 71zm-51.3-.6h50.7l2.5-70H169l2.4 70z"/><path fill="#404040" d="M220 173.8h-46.2l-2.2-63.5h50.6l-2.2 63.5z"/><g fill="#fff" opacity=".2"><path d="M183.3 119.6h-4v48.8h4v-48.8zM198.8 119.6H195v48.8h4v-48.8zM214.4 119.6h-4v48.8h4v-48.8z" opacity=".2"/></g><path fill="#404040" d="M197.7 78.9l-5.2 8.3 64.1 40.6 5.3-8.3-64.2-40.6z"/><path fill="#404040" d="M236.4 88.9a11.6 11.6 0 00-17.7 11.4l3 2a9.1 9.1 0 118.8 5.5l3 2a11.6 11.6 0 002.9-21z"/><path fill="#3F3D56" d="M273.7 177.2H0v.6h273.7v-.6z"/><path fill="#FFB8B8" d="M144.5 74.8s11.7 8.7 7 10.2c-4.9 1.6-11-5-10.6-6.9.3-1.8 3.6-3.3 3.6-3.3z"/><path fill="#336B68" d="M134.3 63.7l12 11.1-4.8 5.1-8.1-6 .9-10.2zM161.2 109.4l-24.8-16c9-7.8 15.3-16.7 17.5-27.1l24.8 15.9c-8 7.4-14 16.8-17.5 27.2z"/><path fill="#D9D9D9" d="M169.5 83.3L156.7 75l-.4.6 12.9 8.3.3-.6zM168 85.7l-12.9-8.3-.3.6 12.8 8.3.4-.6zM166.5 88l-12.9-8.2-.4.6 12.9 8.3.4-.6zM165 90.5l-13-8.3-.3.6 12.8 8.3.4-.6zM163.4 92.9l-12.9-8.3-.4.6 13 8.3.3-.6zM161.9 95.3l-13-8.3-.3.6 12.9 8.3.4-.6zM160.3 97.6l-12.8-8.2-.4.6 12.8 8.2.4-.6zM158.8 100l-12.9-8.2-.4.6 12.9 8.2.4-.6z"/><path fill="#FFB8B8" d="M91.3 147.6l-4.6 9.7 12.8 3-.4-9.3-7.8-3.4zM137 160.6l1.5 10.5 12.3-4.5-5.4-7.5-8.4 1.5z"/><path fill="#404040" d="M109.6 61.4s-1.9 12.1-1.3 17.9c.5 5.7-1.6 30-1.6 30s-9 9.9-11 21.2c-1.4 7-3.6 14-6.6 20.6l10.7 3.5 21.2-40.1s15.2-33.3 13.7-36.5a122 122 0 01-3.9-16l-21.2-.6z"/><path fill="#404040" d="M89.4 154.7s0-5.4-1.9-3c-1.9 2.3-8.1 6.8-4.5 10 3.7 3.1 25.2 20.3 26.4 15.3.6-2.8-10.1-21.6-10.1-21.6s-3.6.2-3.8 1.2c-.3.9-6-1.9-6-1.9z"/><path fill="#FFB8B8" d="M127.6 12.2l-8 9.3 8 8.5 7.6-11.5-7.6-6.3z"/><path fill="#FFB8B8" d="M141.5 12.8a8.1 8.1 0 11-16.3 0 8.1 8.1 0 0116.3 0z"/><path fill="#2F2E41" d="M128 6.6c2.8-1.3 6.2-1.1 9.1-.2 1.7.5 3.4 1.3 4.6 2.6 1.1 1.3 1.8 3.2 1.1 4.9l-2.4-1.9-.2 1.7c-1.7-2.6-4.8-3.7-7.6-4.6-1-.3-2.1-.5-2.6.3l-.5 1.1c-.4.6-1.3.5-2 .9-.6.3-1 1-1.3 1.5-.4.7-.2 1.5-.8 1.9-2.4 1.3-1-4-.6-4.9a5.3 5.3 0 013.2-3.3z"/><path fill="#404040" d="M104.6 78.6s5.1 11.1 8.7 15.6a368 368 0 0115.4 26s-2.1 13.2 2.4 23.7a94.1 94.1 0 016 20.8l10.9-3-4.6-45.2s-5.7-36.1-8.7-38c-3-1.7-12-11-12-11l-18 11z"/><path fill="#336B68" d="M129.8 29.4s-5.2-13.6-12-9.4c-7 4.2-12.4 41.9-12.4 41.9s-6.4 17.1 0 19c6.3 1.7 11.4 4.1 12.3.8 1-3.3.3-9 1.8-6s1 6.6 4 6.6 14.7-1.5 14.4-3.6l-8.1-49.3z"/><path fill="#FFB8B8" d="M104.8 82.6s-4 11.8 1.5 11.8c5.4 0 4.6-11.9 4.6-11.9l-6.1.1z"/><path fill="#404040" d="M139.4 167.5s-3-4.5-3.3-1.5c-.3 3-3 10.3 1.8 10.9 4.8.6 32.2 3 30.4-1.8-1-2.7-20.3-12.4-20.3-12.4s-2.9 2.1-2.6 3c.3 1-6 1.8-6 1.8z"/><path fill="#336B68" d="M146.8 14.8s-1.5 1.2-3.3-1.2c-.5-.7-1-1.4-1.3-2.2a8.3 8.3 0 00-6-2.4c-3.9 0-4.8-2.7-4.8-2.7l-6.3 2.1S126 0 134.7 0s9 7.2 9 7.2 7 2.7 3 7.6z"/><path fill="#000" d="M143.5 13.6c-.5-.7-1-1.4-1.3-2.2a8.3 8.3 0 00-5.5-2.4c2.2-.6 6-1.4 7.7.6 1.5 2 .2 3.3-1 4z" opacity=".2"/><path fill="#336B68" d="M118 22.4s-8.1-1.5-10.2 5.7c-2.1 7.3-6.6 28.6-6.6 28.6l2.7 22-.3 5.4h8.7v-5.7l1.2-24 10-22.6s2-7.3-5.5-9.4z"/><path fill="#000" d="M123.6 35l-10 19.5-1.2 28 3.4-28.3 7.8-19.3zM135.6 65l2.3 11.5-1.1-10.5-1.2-1zM110 92l13 18.3-1.4 2.7L110 92z" opacity=".2"/></g><defs><clipPath id="clip0"><path fill="#fff" d="M0 0h273.7v178H0z"/></clipPath></defs></svg>
